assets/img/icons/duotone-icons/Food/Glass-martini.svg

<?xml version="1.0" encoding="UTF-8"?>
<svg width="24px" height="24px" viewBox="0 0 24 24" version="1.1" xmlns="http://www.w3.org/2000/svg" xmlns:xlink="http://www.w3.org/1999/xlink">
    <!-- Generator: Sketch 52.2 (67145) - http://www.bohemiancoding.com/sketch -->
    <title>Stockholm-icons / Food / Glass-martini</title>
    <desc>Created with Sketch.</desc>
    <g id="Stockholm-icons-/-Food-/-Glass-martini" stroke="none" stroke-width="1" fill="none" fill-rule="evenodd">
        <rect id="bound" x="0" y="0" width="24" height="24"></rect>
        <path d="M13,19.4 L16.6856953,20.8742781 C16.8755245,20.9502098 17,21.1340642 17,21.3385165 L17,21.5 C17,21.7761424 16.7761424,22 16.5,22 L7.5,22 C7.22385763,22 7,21.7761424 7,21.5 L7,21.3385165 C7,21.1340642 7.12447547,20.9502098 7.31430466,20.8742781 L11,19.4 L11,13.5 L13,13.5 L13,19.4 Z" id="Combined-Shape" fill="#335EEA" opacity="0.3"></path>
        <path d="M13.2493901,13.9609566 C12.3868662,14.6509757 11.1282815,14.5111329 10.4382624,13.648609 L3.86900921,5.43704257 C3.65623355,5.171073 3.54031242,4.84060724 3.54031242,4.5 C3.54031242,3.67157288 4.2118853,3 5.04031242,3 L18.9596876,3 C19.3002948,3 19.6307606,3.11592113 19.8967301,3.32869679 C20.5436231,3.84621111 20.6485051,4.79014967 20.1309908,5.43704257 L13.5617376,13.648609 C13.4694741,13.7639384 13.3647195,13.868693 13.2493901,13.9609566 Z M6.08062485,5 L8.5,8.01229084 L15.5,8.01229084 L17.9193752,5 L6.08062485,5 Z" id="Path-58" fill="#335EEA"></path>
    </g>
</svg>

<svg width="24" height="24" viewBox="0 0 24 24" xmlns="http://www.w3.org/2000/svg"><g fill="none" fill-rule="evenodd"><path d="M0 0h24v24H0z"/><path d="M13 19.4l3.686 1.474a.5.5 0 01.314.465v.161a.5.5 0 01-.5.5h-9a.5.5 0 01-.5-.5v-.161a.5.5 0 01.314-.465L11 19.4v-5.9h2v5.9z" fill="#335EEA" opacity=".3"/><path d="M13.25 13.961a2 2 0 01-2.812-.312L3.87 5.437A1.5 1.5 0 015.04 3h13.92a1.5 1.5 0 011.171 2.437l-6.57 8.212a2 2 0 01-.312.312zM6.08 5L8.5 8.012h7L17.92 5H6.08z" fill="#335EEA"/></g></svg>
